static/assets/img/icons/theme/navigation/sign-in.svg

<svg height="24" viewBox="0 0 24 24" width="24" xmlns="http://www.w3.org/2000/svg"><g fill="none" fill-rule="evenodd"><path d="m0 0h24v24h-24z" opacity="0"/><g fill="#000"><rect height="12" opacity=".3" rx="1" transform="matrix(0 1 -1 0 21 3)" width="2" x="8" y="6"/><path d="m20 7.00607258c-.5522847 0-1-.44752105-1-.99956624 0-.5520452.4477153-.99956625 1-.99956625h1c2.209139 0 4 1.79008421 4 3.99826498v5.99652993c0 2.2081808-1.790861 3.998265-4 3.998265h-12c-2.209139 0-4-1.7900842-4-3.998265v-6.00347002c0-2.20818078 1.790861-3.99826498 4-3.99826498h1.0000048c.5522848 0 1 .44752105 1 .99956624 0 .5520452-.4477152.99956625-1 .99956625h-1.0000048c-1.1045695 0-2 .8950421-2 1.99913249v6.00347002c0 1.1040904.8954305 1.9991325 2 1.9991325h12c1.1045695 0 2-.8950421 2-1.9991325v-5.99652993c0-1.10409039-.8954305-1.99913249-2-1.99913249z" fill-rule="nonzero" opacity=".3" transform="matrix(0 -1 1 0 3 27)"/><path d="m16.7928932 9.79289322c.3905243-.39052429 1.0236893-.39052429 1.4142136 0 .3905243.39052428.3905243 1.02368928 0 1.41421358l-3 3c-.3905243.3905243-1.0236893.3905243-1.4142136 0l-3-3c-.3905243-.3905243-.3905243-1.0236893 0-1.41421358.3905243-.39052429 1.0236893-.39052429 1.4142136 0l2.2928932 2.29289318z" fill-rule="nonzero" transform="matrix(0 -1 1 0 2.5 26.5)"/></g></g></svg>

<svg width="24px" height="24px" viewBox="0 0 24 24" version="1.1" xmlns="http://www.w3.org/2000/svg" xmlns:xlink="http://www.w3.org/1999/xlink">
    <title>Icon For Sign-in</title>
    <g stroke="none" stroke-width="1" fill="none" fill-rule="evenodd">
        <rect opacity="0" x="0" y="0" width="24" height="24"></rect>
        <rect fill="#000000" opacity="0.3" transform="translate(9.000000, 12.000000) rotate(-270.000000) translate(-9.000000, -12.000000) " x="8" y="6" width="2" height="12" rx="1"></rect>
        <path d="M20,7.00607258 C19.4477153,7.00607258 19,6.55855153 19,6.00650634 C19,5.45446114 19.4477153,5.00694009 20,5.00694009 L21,5.00694009 C23.209139,5.00694009 25,6.7970243 25,9.00520507 L25,15.001735 C25,17.2099158 23.209139,19 21,19 L9,19 C6.790861,19 5,17.2099158 5,15.001735 L5,8.99826498 C5,6.7900842 6.790861,5 9,5 L10.0000048,5 C10.5522896,5 11.0000048,5.44752105 11.0000048,5.99956624 C11.0000048,6.55161144 10.5522896,6.99913249 10.0000048,6.99913249 L9,6.99913249 C7.8954305,6.99913249 7,7.89417459 7,8.99826498 L7,15.001735 C7,16.1058254 7.8954305,17.0008675 9,17.0008675 L21,17.0008675 C22.1045695,17.0008675 23,16.1058254 23,15.001735 L23,9.00520507 C23,7.90111468 22.1045695,7.00607258 21,7.00607258 L20,7.00607258 Z" fill="#000000" fill-rule="nonzero" opacity="0.3" transform="translate(15.000000, 12.000000) rotate(-90.000000) translate(-15.000000, -12.000000) "></path>
        <path d="M16.7928932,9.79289322 C17.1834175,9.40236893 17.8165825,9.40236893 18.2071068,9.79289322 C18.5976311,10.1834175 18.5976311,10.8165825 18.2071068,11.2071068 L15.2071068,14.2071068 C14.8165825,14.5976311 14.1834175,14.5976311 13.7928932,14.2071068 L10.7928932,11.2071068 C10.4023689,10.8165825 10.4023689,10.1834175 10.7928932,9.79289322 C11.1834175,9.40236893 11.8165825,9.40236893 12.2071068,9.79289322 L14.5,12.0857864 L16.7928932,9.79289322 Z" fill="#000000" fill-rule="nonzero" transform="translate(14.500000, 12.000000) rotate(-90.000000) translate(-14.500000, -12.000000) "></path>
    </g>
</svg>
